X: 34364
T: Reunion, The
R: jig
M: 6/8
K: Amajor
|:B|~c3 BAG|AED CB,A,|DEF EAc|dec BAB|
~c3 BAG|AED CB,A,|DEF EAG|A2A A2:|
|:c|BEE cEE|edc Bcd|c2A ABc|BGE E2c|
BEE cEE|edc Bcd|1 c2A e2c|B3 B2:|2 c2A ABc|d2c BA||

